X: 23320
T: Legacy, The
R: jig
M: 6/8
K: Gmajor
G3 BAB|ggd gab|G3 BAB|dBG A3|
G3 BAB|ggd gab|age eeg|1 dBG A3:|2 dBG ABd||
|:e3 edB|d3 dBd|ege edB|d2 B ABd|
e3 edB|dBd def|g3 ege|dBG A3:|

